X: 57
T:Boyne Hunt, The
M:4/4
L:1/8
R:Reel
K:D
A| BAFA DAFA| DAFA BEEB| BAFA DAFB| ABde fddA| BAFA D3 A| BAFA BEEB| BAF
A DAFA ABde fd d|]
e| faab afed| gfga beeg| faab afed| ABde fdde| faab afed| gfga beeg| f3
e d3 B| ABde fd d|]
% Output from ABC2Win  Version 2.1 i on 29/01/2006
